X: 1
T: What Child Is This?
T: Greensleeves
O: trad England
M: 6/8
L: 1/8
K: Dm
D \
| "Dm"F2G A>BA | "C"G2E C>DE | "Dm"F2D "Gm"D>^CD | "A7"E3 A,2D \
| "Dm"F2G A>BA | "C"G2E C>DE | "Dm"F>ED "A7"^C>=B,C | "Dm"D3 D2 |]
z \
| "F"c3 c>BA | "C"G2E C>DE | "Dm"F2D "Gm"D>^CD | "A7"E2^C A,3 \
| "F"c3 c>BA | "C"G2E C>DE | "Dm"F>ED "A7"^C>=B,C | "Dm"D3 D2 |]
